X: 24298
T: Lost Keys, The
R: barndance
M: 4/4
K: Dminor
|:efec AGAd-|dc2A BG AC/D/|EFcC EFEC|D F2A BGAD|
efec AGAd-|dc2A BG AC/D/|EFcC EFEC|D F2A BGA2:|
|:AGAe2Aed-|dB BA/B/ cdBA|GFGA- ADAG-|GCEG BAGF|
AGAe2Aed-|dB BA/B/ cdBA|GFGA- ADAG-|GCEG BAGF:|

